src/24/panel/pia_tray_connected.svg

<svg xmlns="http://www.w3.org/2000/svg" width="24" height="24" version="1.1">
 <defs>
  <style id="current-color-scheme" type="text/css">
   .ColorScheme-Text { color:#dfdfdf; } .ColorScheme-Highlight { color:#4285f4; }
  </style>
 </defs>
 <path style="fill:currentColor" class="ColorScheme-Text" d="M 12.5,4 C 9.4627564,4 7.0004562,6.3276432 7,9.199219 7.00172,9.332894 7.00888,9.466457 7.021484,9.599609 L 7,9.599609 7,10 5.8339844,10 C 5.3723177,10 5,10.346455 5,10.777344 l 0,5.445312 C 5,16.653545 5.3723177,17 5.8339844,17 L 7,17 7,19.199219 C 7,19.642419 7.3769338,20 7.8457031,20 l 2.9628909,0 1.267578,-2 0.847656,0 1.267578,2 2.962891,0 C 17.623066,20 18,19.642419 18,19.199219 L 18,17 19.166016,17 C 19.627682,17 20,16.653545 20,16.222656 l 0,-5.445312 C 20,10.346455 19.627682,10 19.166016,10 L 18,10 l 0,-0.400391 -0.01758,0 C 17.99372,9.466409 17.99958,9.332846 18,9.199219 17.999544,6.3276432 15.537244,4 12.5,4 Z m 0,2 c 1.932663,-1e-7 3.5,1 3.5,3.977539 -5.58e-4,0.01498 -0.0012,0.02995 -0.002,0.04492 l -6.998,0 c -9.31e-5,-0.01497 -9.31e-5,-0.02995 0,-0.04492 C 9,6.9999999 10.567337,5.9999998 12.5,6 Z m -2.5,2 0,1 1,0 0,-1 z m 4,0 0,1 1,0 0,-1 z m -1.5,3 c 0.923333,0 1.466796,0.782188 1.466796,1.742188 l 0,0.257812 0.617188,0 C 14.811473,12.96085 15,13.262571 15,13.5 l 0,2.072266 C 15,15.809694 14.814818,16 14.583984,16 l -4.167968,0 C 10.185182,16 10,15.809694 10,15.572266 L 10,13.5 c 0,-0.237429 0.29478,-0.696433 0.416016,-0.5 l 0.617187,0 0,-0.257812 C 11.033203,11.781802 11.576667,11 12.5,11 Z m 0,0.857422 c -0.461667,0 -0.632812,0.382565 -0.632812,0.857422 l 0,0.285156 1.265625,0 0,-0.285156 c 0,-0.474857 -0.171146,-0.857422 -0.632813,-0.857422 z"/>
</svg>

<svg xmlns="http://www.w3.org/2000/svg" width="24" height="24"><defs><style id="current-color-scheme" type="text/css"></style></defs><path d="M12.5 4C9.463 4 7 6.328 7 9.2c.002.133.009.266.021.4H7v.4H5.834c-.462 0-.834.346-.834.777v5.446c0 .43.372.777.834.777H7v2.2c0 .442.377.8.846.8h2.963l1.267-2h.848l1.267 2h2.963c.47 0 .846-.358.846-.8V17h1.166c.462 0 .834-.346.834-.777v-5.446c0-.43-.372-.777-.834-.777H18v-.4h-.018A4.92 4.92 0 0 0 18 9.2C18 6.327 15.537 4 12.5 4zm0 2C14.433 6 16 7 16 9.978l-.002.044H9v-.044C9 7 10.567 6 12.5 6zM10 8v1h1V8zm4 0v1h1V8zm-1.5 3c.923 0 1.467.782 1.467 1.742V13h.617c.227-.04.416.263.416.5v2.072a.42.42 0 0 1-.416.428h-4.168a.42.42 0 0 1-.416-.428V13.5c0-.237.295-.696.416-.5h.617v-.258c0-.96.544-1.742 1.467-1.742zm0 .857c-.462 0-.633.383-.633.858V13h1.266v-.285c0-.475-.171-.858-.633-.858z" fill="currentColor" color="#bebebe"/></svg>
